X: 352
P: Longways for as many as will
M: C|
L: 1/8
K: Gm
c2(BA) (Bd) (gd) | (cB) (AG) G3 :: A |\
(BA) (Bc) d2(gf) | (ed)(cB) B2d2 |\
=B2BB c2d2 | (ed)(cB) A2g^f |\
g2(dc) B2d2 | (ed)(cB) A2d2 | (cB) (AG) G3 :|

